X: 9
T:McPhersons Lamentation. JMP.009
M:C|
L:1/8
Q:130
C:"12...a quick march"
S:John Miller MS. Perth, 1799.(for the fife)
R:March
O:Scotland
A:Perth
H:1799
Z:vmp.C Graebe
K:G major
g/e/ | dG {c} B(A/G/) BAA g/e/ |dG (c/B/)(A/G/) E3 g/e/ |!
 dG  B(A/G/) BA A (G/F/) | GE (A/G/)(F/E/) D3 :|!
|: e/f/ | g>age a>bgf | gf/g/ (a/g/)(f/e/) "cr"d3 e/f/ |!
 g>age a>b (b/a/)(g/f/) |gf/e/ a/g/f/e/"D.C." d3 |]
